X:007
T:Albert's Last Dance
M:3/4
L:1/8
K:G
BA | G2 GA Bc | d2 B2 gf | e2 eg fe | d2 B2 gf |
e2 eg fe | d2 B2 d2 | c4 B2 | A2 F2 D2 |
G2 GA Bc | d2 B2 gf | e2 eg fe | d2 B2 gf |
e2 eg fe | d2 B2 d2 | c2B2 A2 | G4 ||
BA | GB dB GB | FA dA FA | EG BG EG | DF AF DF |
GB dB GB | FA dA FA | G4 FA | G4 BA |
GB dB GB | FA dA FA | EG BG EG | DF AF DF |
GB dB GB | FA dA FA | G4 FA | G6 |
